X:189
T: JETZT WIRD DER BESCHLUSS GEMACHT
N: E0772
O: Europa, Mitteleuropa, Deutschland, Thueringen, Thueringer Wald
R: Abschieds - Lied, Liebe
M: 4/4
L: 1/8
K: F
C | F2F2A2A2 | c2fcA2z2 |
c3BG2B2 | dccBA2z2 |
A2A2G3G | B2B2A2z2 |
c3fd2cB | A2G2F2z2 |
A2A2G3G | B2B2A2z2 |
c3fd2cB | A2G2F2z

@@@ Tune index: 4502
